src/assets/methodology-inverse.svg

<?xml version="1.0" encoding="UTF-8" standalone="no"?>
<svg
   xmlns:dc="http://purl.org/dc/elements/1.1/"
   xmlns:cc="http://creativecommons.org/ns#"
   xmlns:rdf="http://www.w3.org/1999/02/22-rdf-syntax-ns#"
   xmlns:svg="http://www.w3.org/2000/svg"
   xmlns="http://www.w3.org/2000/svg"
   id="svg6165"
   version="1.1"
   viewBox="0 0 24.705026 24.705379"
   height="24.705379mm"
   width="24.705027mm">
  <defs
     id="defs6159" />
  <metadata
     id="metadata6162">
    <rdf:RDF>
      <cc:Work
         rdf:about="">
        <dc:format>image/svg+xml</dc:format>
        <dc:type
           rdf:resource="http://purl.org/dc/dcmitype/StillImage" />
        <dc:title></dc:title>
      </cc:Work>
    </rdf:RDF>
  </metadata>
  <g
     style="fill:#ffffff"
     transform="translate(-406.10034,-159.91516)"
     id="layer1">
    <g
       style="fill:#ffffff"
       transform="translate(276.35163,138.15913)"
       id="g7466-2">
      <g
         style="fill:#ffffff"
         id="g1846-10"
         transform="matrix(0.35277777,0,0,-0.35277777,46.009729,56.354144)">
        <g
           style="fill:#ffffff;fill-opacity:1"
           transform="translate(307.40035,63.058388)"
           id="g1158-0">
          <path
             id="path1160-13"
             d="M -35.01438,35.015008 C -48.783579,35.20624 -62.062671,26.35601 -67.278361,13.628794 -72.723702,1.1258482 -69.90621,-14.405667 -60.36124,-24.159468 -51.177523,-34.043184 -36.047381,-37.649417 -23.378611,-33.036425 -10.247127,-28.575522 -0.56590593,-15.675505 -0.04578018,-1.8025515 0.82583381,11.683578 -6.9906563,25.163732 -19.074035,31.184208 -23.982874,33.706979 -29.496456,35.023413 -35.01438,35.015008 Z M -47.007056,23.138055 C -44.611282,23.34638 -46.079664,19.610056 -43.167701,19.919793 -41.651223,19.79512 -40.413568,22.527501 -38.977719,19.891973 -36.242168,18.453627 -40.648323,16.668285 -38.273991,14.828536 -37.69382,13.063351 -34.249475,14.840584 -35.23278,11.707682 -34.378668,8.5924401 -38.899416,10.407575 -38.49192,7.0716494 -37.364846,5.5176299 -36.717062,3.8720339 -39.00022,2.4559267 -40.492536,1.0193977 -41.818992,4.6622054 -43.519326,2.3485927 -45.185199,1.6756372 -43.63459,-1.5676448 -46.640747,-0.70528877 -49.658386,-1.5025073 -48.425334,3.7466677 -52.000709,2.4998714 -53.410718,-0.70763327 -58.324405,4.1607914 -55.126065,5.7417936 -55.523118,7.8537966 -56.693332,8.7465891 -58.666095,8.6251041 -59.402774,10.517071 -59.47905,13.514211 -56.655003,12.99997 -55.096478,14.93716 -56.151607,16.33357 -57.00608,17.882196 -55.884293,20.030834 -54.044281,21.095359 -52.276099,19.281121 -50.054813,19.679067 -49.868694,21.186962 -49.520728,22.869989 -48.713966,23.110162 -47.842291,23.094043 -47.007056,23.138055 Z M -47.382056,17.794305 C -52.390365,17.863527 -55.565292,11.441383 -52.570241,7.4713094 -50.057117,3.4629059 -43.369329,3.7812802 -41.314135,8.0847696 -38.839126,12.430969 -42.401916,18.107196 -47.382056,17.794305 Z M -23.376197,8.5291686 C -20.695321,8.2620509 -16.839656,7.0189364 -19.135571,3.7043392 -17.550643,1.4432872 -15.633299,0.39614546 -13.202862,1.9139219 -11.199974,-0.04151178 -9.6448291,-3.8276235 -13.408771,-4.6207935 -13.893094,-7.2933089 -13.216912,-9.4069619 -10.501469,-10.050445 -10.475546,-12.662215 -11.871363,-16.927342 -15.178931,-14.562628 -17.368105,-16.039783 -18.499102,-18.072875 -16.998299,-20.411492 -18.430494,-21.743674 -22.351831,-24.576252 -23.077379,-21.069524 -24.677684,-19.364458 -28.760397,-20.052133 -28.77865,-23.060898 -31.417158,-23.563492 -35.889478,-21.760893 -33.526876,-18.436356 -35.024901,-16.703685 -36.798434,-14.809492 -38.989966,-16.708624 -40.558712,-15.973778 -43.323952,-11.711408 -40.434737,-10.836581 -38.118286,-9.8911304 -38.802762,-4.9846252 -41.735084,-5.112921 -42.894045,-2.8084065 -40.73981,2.3356762 -37.469459,-0.20276478 -35.142416,1.3265377 -34.154925,3.3623737 -35.619567,5.7671271 -33.572742,7.8437639 -29.920266,9.2450263 -29.056268,5.5132319 -25.516173,5.3955996 -25.235394,5.2502579 -23.376197,8.5291686 Z M -26.566627,1.5945982 C -32.143066,1.6365764 -36.62026,-4.2790185 -35.018556,-9.6262034 -33.806228,-15.318145 -26.509756,-18.229072 -21.671438,-15.06131 -16.68877,-12.2817 -15.860416,-4.6206825 -20.165488,-0.84770927 -21.867176,0.76880021 -24.219822,1.6744244 -26.566627,1.5945982 Z"
             style="fill:#ffffff;fill-opacity:1;fill-rule:nonzero;stroke:none;stroke-width:1" />
        </g>
        <g
           style="stroke-width:1.35484469;fill:#ffffff"
           transform="matrix(0.72579364,0.13417649,-0.13417649,0.72579364,282.67499,46.843508)"
           id="g1162-3" />
        <g
           id="g1836-0"
           transform="matrix(0.53008204,-0.11395472,0.11395472,0.53008204,258.87062,67.821854)"
           style="stroke-width:1.84436369;fill:#ffffff" />
      </g>
    </g>
  </g>
</svg>

<svg xmlns="http://www.w3.org/2000/svg" viewBox="0 0 24.705 24.705" height="93.375" width="93.373"><g style="fill:#fff"><g style="fill:#fff;fill-opacity:1"><path d="M-35.014 35.015c-13.77.191-27.049-8.659-32.264-21.386-5.446-12.503-2.628-28.035 6.917-37.788 9.183-9.884 24.314-13.49 36.982-8.877C-10.247-28.576-.566-15.676-.046-1.803.826 11.684-6.99 25.164-19.074 31.184a34.9 34.9 0 0 1-15.94 3.831zm-11.993-11.877c2.396.208.927-3.528 3.84-3.218 1.516-.125 2.753 2.608 4.19-.028 2.735-1.438-1.671-3.224.703-5.063.58-1.766 4.025.012 3.041-3.121.854-3.116-3.666-1.3-3.259-4.636 1.127-1.554 1.775-3.2-.508-4.616-1.493-1.437-2.819 2.206-4.52-.107-1.665-.673-.115-3.917-3.12-3.054-3.018-.798-1.785 4.452-5.36 3.205-1.41-3.208-6.324 1.66-3.126 3.242-.397 2.112-1.567 3.005-3.54 2.883-.737 1.892-.813 4.89 2.011 4.375 1.559 1.937.503 3.334-.351 4.882 1.122 2.149 2.962 3.213 4.73 1.4 2.221.397 2.407 1.905 2.755 3.588.807.24 1.679.224 2.514.268zm-.375-5.344c-5.008.07-8.183-6.353-5.188-10.323 2.513-4.008 9.2-3.69 11.256.614 2.475 4.346-1.088 10.022-6.068 9.71zm24.006-9.265c2.68-.267 6.536-1.51 4.24-4.825 1.585-2.26 3.503-3.308 5.933-1.79 2.003-1.956 3.558-5.742-.206-6.535-.484-2.672.192-4.786 2.908-5.43.025-2.611-1.37-6.876-4.678-4.512-2.19-1.477-3.32-3.51-1.82-5.848-1.431-1.333-5.353-4.165-6.078-.659-1.6 1.706-5.683 1.018-5.702-1.99-2.638-.503-7.11 1.3-4.748 4.624-1.498 1.732-3.271 3.627-5.463 1.727-1.569.735-4.334 4.998-1.445 5.872 2.317.946 1.632 5.852-1.3 5.724-1.159 2.305.995 7.449 4.266 4.91 2.327 1.53 3.314 3.565 1.85 5.97 2.046 2.077 5.699 3.478 6.563-.254 3.54-.117 3.82-.263 5.68 3.016zm-3.19-6.934c-5.577.042-10.054-5.874-8.453-11.221 1.213-5.692 8.51-8.603 13.348-5.435 4.982 2.78 5.81 10.44 1.506 14.213-1.702 1.617-4.055 2.522-6.402 2.443z" style="fill:#fff;fill-opacity:1;fill-rule:nonzero;stroke:none;stroke-width:1" transform="matrix(.35278 0 0 -.35278 24.705 12.353)"/></g></g></svg>
